!!!!SEGMENT: pl-kk--kk-i-2--045-003_certon-pierre--missa-ad-imitationem-moduli-le-temps-qui-court-credo.krn
!!!cenid: 16xx:1671
!!!COM: Certon, Pierre
!!!COM-rismid: pe30006023
!!!CDT: ~1510-1572/02/23
!!!CNT: French
!!!OPR: Missa Ad imitationem moduli [Le temps qui court]
!!!OTL: Credo
!!!OMV: 003
!!!PDT:
!!!AGN: Sacred; Mass
!!!SMS-siglum: PL-Kk
!!!SMS-shelfmark: Kk.I.2
!!!SMS-shelfwork: 045-003 M
!!!NIFC-rismid: 300258063
!!!URL-scan: http://repozytorium.nifc.pl/skany/pl-kk-nut--i-2
!!!ONB-nifc: Części mszy: Kyrie, Gloria, Credo, Sanctus, Agnus Dei; skany: C: 0070-0072; A: 0174-0176; T: 0274-275; B: 0374-0376;
!!!key: d:dor
**kern	**text	**kern	**text	**kern	**text	**kern	**text
*part4	*part4	*part3	*part3	*part2	*part2	*part1	*part1
*staff4	*staff4	*staff3	*staff3	*staff2	*staff2	*staff1	*staff1
*I"BASVS	*	*I"TENOR	*	*I"ALTVS	*	*I"DISCANTVS	*
*I'B	*	*I'T	*	*I'A	*	*I'S	*
*Ibass	*	*Itenor	*	*Ialto	*	*Isoprn	*
*ICvox	*	*ICvox	*	*ICvox	*	*ICvox	*
*clefF4	*	*clefC4	*	*clefC4	*	*clefC4	*
*k[]	*	*k[]	*	*k[]	*	*k[]	*
*d:	*	*d:	*	*d:	*	*d:	*
*M2/1	*	*M2/1	*	*M2/1	*	*M2/1	*
*met(C|)	*	*met(C|)	*	*met(C|)	*	*met(C|)	*
=1-	=1-	=1-	=1-	=1-	=1-	=1-	=1-
1r	.	1.D	Pa-	0r	.	00r	.
1.D	Pa-	.	.	.	.	.	.
.	.	2D/	-trem	.	.	.	.
=2-	=2-	=2-	=2-	=2-	=2-	=2-	=2-
.	.	2F/	om-	1.D	Pa-	.	.
2D/	-trem	2F/	-ni-	.	.	.	.
2GG/	om-	2G/	-po-	.	.	.	.
2GG/	-ni-	2G/	.	2D/	-trem	.	.
=3-	=3-	=3-	=3-	=3-	=3-	=3-	=3-
*	*	*lig	*	*	*	*	*
1D	-po-	1A	-ten-	2F/	om-	0r	.
.	.	.	.	2F/	-ni-	.	.
1BB	-ten-	1D	.	2G/	-po-	.	.
.	.	.	.	2G/	-ten-	.	.
*	*	*Xlig	*	*	*	*	*
=4-	=4-	=4-	=4-	=4-	=4-	=4-	=4-
1AA	-tem	2E/	-tem	1A	-tem	1A	Fa-
.	.	2e\	Fa-	.	.	.	.
2r	.	2c\	-cto-	2r	.	2A/	-cto-
2AA/	Fa-	2c\	-rem	2E/	Fa-	2A/	-re(m)
=5-	=5-	=5-	=5-	=5-	=5-	=5-	=5-
*	*	*	*	*	*	*2\right	*
2AA/	-cto-	1.A	cae-	2E/	-cto-	2c\	cae-
2AA/	-re(m)	.	.	2E/	-re(m)	2c\	-li
1D	cae-	.	.	2F/	cae-	2d\	et
.	.	2B\	-li	2F/	-li	2d\	ter-
=6-	=6-	=6-	=6-	=6-	=6-	=6-	=6-
2C/	-li	1c	et	2G/	et	00e	-rae
2AA/	et	.	.	1A	.	.	.
1E	ter-	1B	ter-	.	.	.	.
.	.	.	.	2G#y/	ter-	.	.
=7-	=7-	=7-	=7-	=7-	=7-	=7-	=7-
*	*	*	*	*lig	*	*	*
2AA/	-rae	2A/	-rae	1A	-rae	.	.
1A	vi-	2A/	Vi-	.	.	.	.
.	.	2c\	-ſi-	1E	.	.	.
2G#y\	-ſi-	2B\	-bi-	.	.	.	.
*	*	*	*	*Xlig	*	*	*
=8-	=8-	=8-	=8-	=8-	=8-	=8-	=8-
2A\	-bi-	2c\	-li-	1r	.	1r	.
*custos:A	*	*	*	*	*	*	*
!LO:LB:g=original	!	!	!	!	!	!	!
4A\	-li-	2c\	-u(m)	.	.	.	.
4A\	-um	.	.	.	.	.	.
2Gny\	om-	2d\	om-	2r	.	2r	.
2F\	-ni-	2d\	-ni-	1A/	vi-	2A/	vi-
=9-	=9-	=9-	=9-	=9-	=9-	=9-	=9-
1E	-um	2e,<\	-um	.	.	2c\	-ſi-
.	.	1e	et	2G#y/	-ſi-	2B\	-bi-
*	*	*	*	*custos:A	*	*	*
!	!	!	!	!LO:LB:g=original	!	!	!
1r	.	.	.	2A/	-bi-	2c\	-li-
.	.	4d\	.	4A/	-li-	2c\	-u(m)
.	.	4c\	in-	4A/	-u(m)	.	.
=10-	=10-	=10-	=10-	=10-	=10-	=10-	=10-
2r	.	2B/	-vi-	2Gny/	om-	2d\	om-
1D	et	2A/	-ſi-	2F/	-ni-	2d\	-ni-
*	*	*	*	*	*	*custos:e	*
!	!	!	!	!	!	!LO:PB:g=original	!
.	.	1c	.	2E/	.	2e\	-um
2C/	in-	.	.	2E/	-um	2e\	et
=11-	=11-	=11-	=11-	=11-	=11-	=11-	=11-
2.D/	-ui-	2.A/	-bi-	2D/	et	2f\	in-
.	.	.	.	2F/	in-	2f\	-vi-
4D/	-ſi-	4B\	.	.	.	.	.
2C/	-bi-	2c\	.	4G/	-ui-	2e\	-si-
.	.	.	.	4F/	-ſi-	.	.
2BB/	-li-	2G/	-li-	4E/	.	1d\	-bi-
.	.	.	.	4D/	.	.	.
=12-	=12-	=12-	=12-	=12-	=12-	=12-	=12-
1AA	-um	1A	-um	2E/	-bi-	.	.
.	.	.	.	2E/	-li-	2c#y\	-li-
*	*	*custos:A	*	*	*	*	*
!	!	!LO:PB:g=original	!	!	!	!	!
1D	.	2r	.	0D	-um	2d,<\	-um
.	.	1A/	Et	.	.	1d\	Et
=13-	=13-	=13-	=13-	=13-	=13-	=13-	=13-
2r	.	.	.	.	.	.	.
1D	Et	2A/	in	.	.	2d\	in
.	.	2A/	v-	2r	.	2d\	u-
2D\	in	2A/	-num	1A/	Et	2d\	-num
=14-	=14-	=14-	=14-	=14-	=14-	=14-	=14-
2D\	u-	2d\	D(o-	.	.	1.f	D(o-
2D\	-num	2d\	-mi)-	2A/	in	.	.
2.F\	Do-	1c	-num	2A/	u-	.	.
.	.	.	.	2A/	-num	2f\	-mi)-
4F\	-mi-	.	.	.	.	.	.
=15-	=15-	=15-	=15-	=15-	=15-	=15-	=15-
1C	-num	2r	.	2c\	do-	1e	-num
.	.	2G/	Je-	2c\	-mi-	.	.
1C	Je-	1.c	-ſum	2G/	-num	1e	Je-
.	.	.	.	2A/	Je-	.	.
=16-	=16-	=16-	=16-	=16-	=16-	=16-	=16-
1D	-ſum	.	.	4A/	-ſum	2.d\	-sum
.	.	.	.	4G/	.	.	.
.	.	4B\	Chri-	4F/	.	.	.
.	.	4A/	.	4E/	.	4cny\	.
1D	chri-	1B	.	1F	chri-	4d\	.
.	.	.	.	.	.	4e\	.
.	.	.	.	.	.	1f\	CHris-
=17-	=17-	=17-	=17-	=17-	=17-	=17-	=17-
0C	-ſtum	1c	-ſtum	0G	-ſtum	.	.
.	.	.	.	.	.	4e\	.
.	.	.	.	.	.	4d\	.
.	.	2r	.	.	.	1e	-tum
.	.	1c\	fi-	.	.	.	.
*	*	*	*	*custos:F	*	*	*
!	!	!	!	!LO:PB:g=original	!	!	!
=18-	=18-	=18-	=18-	=18-	=18-	=18-	=18-
2r	.	.	.	0F	ſtum	1f	.
1F	fi-	2A/	-li-	.	.	.	.
.	.	2.A/	-um	.	.	2r	.
2D/	-li-	.	.	.	.	1f\	fi-
.	.	4G/	.	.	.	.	.
=19-	=19-	=19-	=19-	=19-	=19-	=19-	=19-
2D/	-um	4F/	.	2r	.	.	.
.	.	4E/	.	.	.	.	.
*custos:C	*	*	*	*	*	*	*
!LO:LB:g=original	!	!	!	!	!	!	!
2C/	De-	1G	De-	2c\	fi-	2e\	-li-
1D	-i	.	.	2B\	-li-	1d	-um
.	.	1F/	-i	1A/	-um	.	.
=20-	=20-	=20-	=20-	=20-	=20-	=20-	=20-
1BB	V-	.	.	.	.	1d	De-
.	.	4E/	V-	2G#y/	De-	.	.
.	.	4D/	.	.	.	.	.
2.AA/	-ni-	2E/	-ni-	2A/	-i	2c\	-i
.	.	1c\	-ge-	2.A/	v-	2f\	V-
4BB/	.	.	.	.	.	.	.
=21-	=21-	=21-	=21-	=21-	=21-	=21-	=21-
2C/	-ge-	.	.	.	.	2e\	-ni-
.	.	.	.	4Gny/	.	.	.
2D/	-ni-	2B-y\	-ni-	2F/	-ni-	1d	-ge-
1AA	-tum	2A/	.	2E/	-ge-	.	.
.	.	2A/	-tum	2E/	-ni-	2c#y\	-ni-
*	*	*	*	*	*	*custos:d	*
!	!	!	!	!	!	!LO:LB:g=original	!
=22-	=22-	=22-	=22-	=22-	=22-	=22-	=22-
1D	.	0F	.	0D	-tum	0d	-tum
2r	.	.	.	.	.	.	.
2D/	Et	.	.	.	.	.	.
=23-	=23-	=23-	=23-	=23-	=23-	=23-	=23-
1F	ex	00r	.	2r	.	00r	.
.	.	.	.	2A/	Et	.	.
2E\	pa-	.	.	1c	ex	.	.
2C/	-tre	.	.	.	.	.	.
=24-	=24-	=24-	=24-	=24-	=24-	=24-	=24-
1E	na-	.	.	2B\	pa-	.	.
.	.	.	.	2G/	-tre	.	.
2D/	-tum	.	.	1B	na-	.	.
2D/	an-	.	.	.	.	.	.
=25-	=25-	=25-	=25-	=25-	=25-	=25-	=25-
2F\	-te	00r	.	2A/	-tum	0r	.
1F	om-	.	.	2A/	an-	.	.
.	.	.	.	2c\	-te	.	.
2E\	-ni-	.	.	2c\	om-	.	.
=26-	=26-	=26-	=26-	=26-	=26-	=26-	=26-
4D/	-a	.	.	2B\	-ni-	1r	.
4C/	.	.	.	.	.	.	.
4BB/	.	.	.	2A/	-a	.	.
4AA/	.	.	.	.	.	.	.
2BB/	ſe-	.	.	2A/	ſe-	2r	.
2BB/	-cu-	.	.	2G#y/	-cu-	2d\	De-
=27-	=27-	=27-	=27-	=27-	=27-	=27-	=27-
0AA	-la	2r	.	0A	-la	1f	-um
.	.	2A/	De-	.	.	.	.
.	.	1c	-um	.	.	2e\	de
.	.	.	.	.	.	2cny\	De-
*	*	*	*	*custos:E	*	*	*
!	!	!	!	!LO:LB:g=original	!	!	!
=28-	=28-	=28-	=28-	=28-	=28-	=28-	=28-
00r	.	2Bny\	de	0r	.	2d\	-o
.	.	2G/	De-	.	.	2d\	.
.	.	2A/	-o,	.	.	1f	lu-
.	.	2A/	lu-	.	.	.	.
*	*	*custos:c	*	*	*	*	*
!	!	!LO:LB:g=original	!	!	!	!	!
=29-	=29-	=29-	=29-	=29-	=29-	=29-	=29-
.	.	2c\	-men	2r	.	1e	-men
.	.	1c	de	2E/	lu-	.	.
.	.	.	.	2.Gny/	-men	2.d\	de
.	.	2.B\	.	.	.	.	.
.	.	.	.	4G/	de	8c\L	.
.	.	.	.	.	.	8B\J	.
=30-	=30-	=30-	=30-	=30-	=30-	=30-	=30-
0r	.	.	.	2F/	lu-	2c\	lu-
.	.	4A/	lu-	.	.	.	.
.	.	1A	-mi-	2D/	-mi-	2d\	-mi-
.	.	.	.	1E	-ne	1B	-ne
.	.	2G#y/	.	.	.	.	.
=31-	=31-	=31-	=31-	=31-	=31-	=31-	=31-
2r	.	2A,</	-ne	2r	.	2A,</	.
1D	De-	1A	De-	1F	De-	1d	De-
*custos:D	*	*	*	*	*	*	*
!LO:LB:g=original	!	!	!	!	!	!	!
2D/	-um	2A/	-um	2F/	-um	2d\	-um
=32-	=32-	=32-	=32-	=32-	=32-	=32-	=32-
1D	ve-	2.A/	Ve-	1F	ve-	1d	ve-
.	.	4B\	.	.	.	.	.
2.C/	-rum	1c	-ru(m)	2G/	-rum	1e	-rum
.	.	.	.	1E/	de	.	.
4BB/	de	.	.	.	.	.	.
=33-	=33-	=33-	=33-	=33-	=33-	=33-	=33-
2AA/	De-	2c\	de	.	.	2c\	.
2GG/	-o	2B\	.	2G/	De-	2d\	de
2.FF/	ve-	2.c\	De-	2.A/	-o	2f\	De-
.	.	.	.	.	.	1e\	-o
4GG/	-ro	4B\	.	4G/	.	.	.
=34-	=34-	=34-	=34-	=34-	=34-	=34-	=34-
2AA/	.	2A/	-o	2F/	.	.	.
2BB-y/	.	2Gny/	.	4E/	.	1d	ve-
.	.	.	.	4D/	.	.	.
1AA	.	1A	ve-	1E	ve-	.	.
.	.	.	.	.	.	2c#y\	.
=35-	=35-	=35-	=35-	=35-	=35-	=35-	=35-
0D	.	1F	-ro,	0D	-ro	1d	-ro.
.	.	2r	.	.	.	2r	.
.	.	2F/	Ge-	.	.	2d\	Ge-
=36-	=36-	=36-	=36-	=36-	=36-	=36-	=36-
0r	.	2F/	-ni-	0r	.	2d\	-ni-
.	.	2F/	-tum	.	.	2d\	-tu(m)
.	.	2E/	non	.	.	1cny	no(n)
.	.	1A/	fa-	.	.	.	.
=37-	=37-	=37-	=37-	=37-	=37-	=37-	=37-
1r	.	.	.	1r	.	1B	fa-
.	.	2G#y/	-ctum	.	.	.	.
*	*	*	*	*	*	*custos:A	*
!	!	!	!	!	!	!LO:LB:g=original	!
2r	.	1A	.	2r	.	0A	-ctum
2D/	con-	.	.	2F/	con-	.	.
=38-	=38-	=38-	=38-	=38-	=38-	=38-	=38-
2D/	-ſub-	0r	.	2F/	-ſub-	.	.
2D/	-ſtan-	.	.	2F/	-ſtan-	.	.
2C/	-ti-	.	.	2E/	-ti-	1r	.
2C/	-a-	.	.	2A/	-a-	.	.
*	*	*	*	*custos:A	*	*	*
!	!	!	!	!LO:LB:g=original	!	!	!
=39-	=39-	=39-	=39-	=39-	=39-	=39-	=39-
2BBny/	-lem	1r	.	2A/	-lem	2r	.
2BB/	pa-	.	.	2G#y/	pa-	1d	per
1AA	-tri	2r	.	2.A/	.	.	.
.	.	1A/	per	.	.	2c#y\	quem
.	.	.	.	4Gny/	.	.	.
=40-	=40-	=40-	=40-	=40-	=40-	=40-	=40-
1r	.	.	.	2F/	-tri	2d\	.
.	.	2G#y/	quem	2E/	.	2e\	om-
2r	.	2A/	.	1r	.	2cny\	-ni-
1D\	per	2B\	om-	.	.	2d\	-a
=41-	=41-	=41-	=41-	=41-	=41-	=41-	=41-
.	.	4c\	-ni-	2r	.	2A/	fa-
.	.	4B\	.	.	.	.	.
2C/	quem	4A/	.	1A	per	2c\	-cta
.	.	4Gny/	.	.	.	.	.
2D/	om-	2F/	-a	.	.	1B	.
2E/	-ni-	2.E/	fa-	2G#y/	quem	.	.
=42-	=42-	=42-	=42-	=42-	=42-	=42-	=42-
2C/	-a	.	.	2A/	om-	2A,</	ſunt
.	.	4D/	.	.	.	.	.
*	*	*custos:F	*	*	*	*	*
!	!	!LO:LB:g=original	!	!	!	!	!
2D/	fa-	1F	.	2B\	-ni-	2d\	fa-
2AA/	-cta	.	.	2c\	-a	2e\	-cta
2C/	.	1E/	-cta	1A/	fa-	2c\	.
=43-	=43-	=43-	=43-	=43-	=43-	=43-	=43-
1BB	.	.	.	.	.	1d	ſunt
.	.	2D/	.	2G#y/	-cta	.	.
*custos:AA	*	*	*	*	*	*	*
!LO:LB:g=original	!	!	!	!	!	!	!
0.AA	ſunt	1E	ſunt	2A/	ſunt	2c,<\	.
.	.	.	.	1A/	Qui	1e\	Qui
=44-	=44-	=44-	=44-	=44-	=44-	=44-	=44-
.	.	0r	.	.	.	.	.
.	.	.	.	2A/	pro-	2f\	pro-
.	.	.	.	2.c\	-pter	2.e\	-pter
.	.	.	.	4B\	nos	4d\	nos
=45-	=45-	=45-	=45-	=45-	=45-	=45-	=45-
2r	.	1r	.	2A/	ho-	2c\	ho-
2E\	et	.	.	2G#y/	-mi-	2B\	-mi-
2F\	pro-	2r	.	1A	-nes	1A	-nes
2F\	-pter	2A/	et	.	.	.	.
=46-	=46-	=46-	=46-	=46-	=46-	=46-	=46-
2.E\	noſ-	2.c\	pro-	0r	.	2r	.
.	.	.	.	.	.	2e\	de-
4D/	-tram	4B\	-pter	.	.	.	.
2C/	ſa-	2A/	n(os-	.	.	2e\	-ſcen-
2BB/	-lu-	2G#y/	-t)ram	.	.	2d\	-dit
=47-	=47-	=47-	=47-	=47-	=47-	=47-	=47-
1AA	-tem	2A/	ſa-	2r	.	2c\	de
.	.	2A/	-lu-	2A/	de-	2A/	cae-
1r	.	1E	-te(m)	2A/	-ſcen-	2B,<\	-lis
*	*	*	*	*	*	*	*ij
.	.	.	.	2Gny/	-dit	2e\	de-
*	*	*	*	*	*	*custos:c	*
!	!	!	!	!	!	!LO:LB:g=original	!
=48-	=48-	=48-	=48-	=48-	=48-	=48-	=48-
00r	.	2r	.	2F/	de	2c\	-ſcen-
*	*	*	*	*custos:D	*	*	*
!	!	!	!	!LO:LB:g=original	!	!	!
.	.	2A/	de-	2D/	cae-	2d\	-dit
.	.	2A/	-ſcen-	2E/	-lis	1B	de
*	*	*	*	*	*ij	*	*
.	.	2Gny/	.	2e\	de-	.	.
=49-	=49-	=49-	=49-	=49-	=49-	=49-	=49-
.	.	2F/	-dit	2c\	-ſcen-	2A/	.
.	.	2D/	de	2d\	-dit	1A	cae-
.	.	1E	cae-	1B	de	.	.
.	.	.	.	.	.	2G#y/	.
=50-	=50-	=50-	=50-	=50-	=50-	=50-	=50-
2r	.	1.F	.	2A/	cae-	2A/	-lis
*	*	*	*	*	*	*	*Xij
2D/	de-	.	.	2A/	-lis	1f	de
*	*	*	*	*	*Xij	*	*
2D/	-ſcen-	.	.	2D/	de	.	.
2C/	.	2G/	.	2E/	cae-	1e\	cae-
=51-	=51-	=51-	=51-	=51-	=51-	=51-	=51-
*	*	*lig	*	*	*	*	*
2BB-y/	-dit	1B-y	.	2F/	.	.	.
2GG/	de	.	.	2G/	.	1d	.
1AA	cae-	1A	.	1E	.	.	.
.	.	.	.	.	.	2c#y\	-lis
*	*	*Xlig	*	*	*	*	*
=52-	=52-	=52-	=52-	=52-	=52-	=52-	=52-
0Dl;<	-lis	0Al;;	-lis	0Dl;	-lis	0dl;;	.
!LO:PB:g=original	!	!LO:LB:g=original	!	!	!	!	!
=53||	=53||	=53||	=53||	=53||	=53||	=53||	=53||
*M2/1	*	*M2/1	*	*M2/1	*	*M2/1	*
*met(C|)	*	*met(C|)	*	*met(C|)	*	*met(C|)	*
1D	Et	1A	Et	1D	ET	1d	Et
2D/	in-	2A/	in-	1.F	in-	2d\	in-
!LO:TX:t=P:problem:kreska pseudotaktowa	!	!	!	!	!	!LO:TX:t=P:problem:kreska pseudotaktowa	!
2D/	-car-	2A/	-car-	.	.	2d\	-car-
=54-	=54-	=54-	=54-	=54-	=54-	=54-	=54-
1D	-na-	1A	-na-	.	.	1d	-na-
!	!	!	!	!LO:TX:t=P:problem:kreska pseudotaktowa	!	!	!
.	.	.	.	2D/	-car-	.	.
!	!	!LO:TX:t=P:problem:kreska pseudotaktowa	!	!	!	!	!
1BB-y	-tus	1D	-tus	2F/	-na-	1d	-tus
.	.	.	.	2G/	-tus	.	.
=55-	=55-	=55-	=55-	=55-	=55-	=55-	=55-
!LO:TX:t=P:problem:kreska pseudotaktowa	!	!	!	!	!	!LO:TX:t=P:problem:kreska pseudotaktowa	!
1AA	eſt	2E/	.	4A/	eſt	1c	eſt
.	.	.	.	4G/	.	.	.
*	*	*	*	*custos:F	*	*	*
!	!	!	!	!LO:LB:g=original	!	!	!
.	.	2A/	est	4F/	.	.	.
!	!	!	!	!LO:TX:t=P:problem:kreska pseudotaktowa	!	!	!
.	.	.	.	4E/	.	.	.
*	*	*	*	*lig	*	*	*
2r	.	1c	de	1F	.	2r	.
2AA/	de	.	.	.	.	2A/	de
=56-	=56-	=56-	=56-	=56-	=56-	=56-	=56-
!	!	!	!	!LO:TX:t=P:problem:kreska pseudotaktowa	!	!	!
2AA/	Spi-	2A/	Spi-	1E	.	2c\	Spi-
!LO:TX:t=P:problem:kreska pseudotaktowa	!	!LO:TX:t=P:problem:kreska pseudotaktowa:między nutą a kropką	!	!	!	!LO:TX:t=P:problem:kreska pseudotaktowa	!
2AA/	-ri-	2.c\	-ri-	.	.	2A/	-ri-
*	*	*	*	*Xlig	*	*	*
1AA	-tu	.	.	2r	.	1c	-tu
.	.	4B\	-tu	.	.	.	.
.	.	4A/	.	2A/	de	.	.
.	.	4G/	.	.	.	.	.
=57-	=57-	=57-	=57-	=57-	=57-	=57-	=57-
1D	San-	1F	.	2A/	Spi-	1d	San-
!	!	!	!	!LO:TX:t=P:problem:kreska pseudotaktowa	!	!	!
.	.	.	.	2A/	-ri-	.	.
!	!	!	!	!	!	!LO:TX:t=P:problem:kreska pseudotaktowa	!
2C/	.	2E/	.	1c	-tu	0e,<	-cto
!LO:TX:t=P:problem:kreska pseudotaktowa	!	!	!	!	!	!	!
2AA/	.	1A/	San-	.	.	.	.
=58-	=58-	=58-	=58-	=58-	=58-	=58-	=58-
!	!	!	!	!LO:TX:t=P:problem:kreska pseudotaktowa	!	!	!
1E	.	.	.	1B	San-	.	.
.	.	2G#y/	.	.	.	.	.
*	*	*lig	*	*	*	*	*
1AA	-cto	1A	-cto	2A/	-cto	1.e	Ex
.	.	.	.	1A/	Ex	.	.
=59-	=59-	=59-	=59-	=59-	=59-	=59-	=59-
!	!	!LO:TX:t=P:problem:kreska pseudotaktowa	!	!	!	!	!
1.AA	Ex	1E	.	.	.	.	.
!	!	!	!	!LO:TX:t=P:problem:kreska pseudotaktowa	!	!	!
.	.	.	.	2A/	Ma-	2e\	Ma-
*	*	*Xlig	*	*	*	*	*
.	.	1r	.	1c	-ri-	1e	-ri-
!LO:TX:t=P:problem:kreska pseudotaktowa	!	!	!	!	!	!	!
2AA/	Ma-	.	.	.	.	.	.
=60-	=60-	=60-	=60-	=60-	=60-	=60-	=60-
!	!	!	!	!	!	!LO:TX:t=P:problem:kreska pseudotaktowa	!
2C/	-ri-	1.e	Ex	2G/	-a	1c	-a
!	!	!	!	!LO:TX:t=P:problem:kreska pseudotaktowa	!	!	!
2AA/	-a	.	.	2A/	Vir-	.	.
*	*	*	*	*	*	*custos:c	*
!	!	!	!	!	!	!LO:LB:g=original	!
2.C/	Vir-	.	.	2E/	-gi-	1c	Vir-
.	.	2e\	Ma-	1A/	-ne	.	.
!LO:TX:t=P:problem:kreska pseudotaktowa	!	!	!	!	!	!	!
4D/	-gi-	.	.	.	.	.	.
=61-	=61-	=61-	=61-	=61-	=61-	=61-	=61-
!	!	!LO:TX:t=P:problem:kreska pseudotaktowa	!	!	!	!	!
1E	-ne	1e	-ri-	.	.	1B	.
!	!	!	!	!LO:TX:t=P:problem:kreska pseudotaktowa	!	!	!
.	.	.	.	2G#y/	.	.	.
2.AA/	.	1.c	-a	2.A/	.	4A\	.
.	.	.	.	.	.	4B\	.
.	.	.	.	.	.	4c\	.
!LO:TX:t=P:problem:kreska pseudotaktowa	!	!	!	!	!	!LO:TX:t=P:problem:kreska pseudotaktowa	!
4BBny/	.	.	.	8Gny/	.	4d\	.
!	!	!	!	!LO:TX:t=P:problem:kreska pseudotaktowa	!	!	!
.	.	.	.	8F/	.	.	.
=62-	=62-	=62-	=62-	=62-	=62-	=62-	=62-
2C/	.	.	.	2E/	.	2e\	.
!	!	!LO:TX:t=P:problem:kreska pseudotaktowa:między nutą a kropką	!	!	!	!	!
2.D/	.	2.B-y\	Vir-	1F	.	1d	-gi-
*custos:C	*	*	*	*	*	*	*
!LO:LB:g=original	!	!	!	!	!	!	!
4C/	.	4A/	.	.	.	.	.
!LO:TX:t=P:problem:kreska pseudotaktowa	!	!	!	!	!	!LO:TX:t=P:problem:kreska pseudotaktowa	!
2AA/	.	1A/	-gi-	1E/	.	2c#y\	-ne
=63-	=63-	=63-	=63-	=63-	=63-	=63-	=63-
1BB-y	.	.	.	.	.	1d,<	.
!	!	!	!	!LO:TX:t=P:problem:kreska pseudotaktowa	!	!	!
.	.	2Gny/	.	2D/	.	.	.
!LO:TX:t=P:problem:kreska pseudotaktowa	!	!LO:TX:t=P:problem:kreska pseudotaktowa	!	!	!	!	!
1AA	.	0A	-ne	1E	.	1cny	et
=64-	=64-	=64-	=64-	=64-	=64-	=64-	=64-
!LO:TX:t=P:problem:kreska pseudotaktowa	!	!	!	!	!	!LO:TX:t=P:problem:kreska pseudotaktowa	!
0AA	et	.	.	1.E	et	0c	ho-
.	.	1r	.	.	.	.	.
*	*	*	*	*custos:F	*	*	*
!	!	!	!	!LO:PB:g=original	!	!	!
!	!	!	!	!LO:TX:t=P:problem:kreska pseudotaktowa	!	!	!
.	.	.	.	2F/	.	.	.
=65-	=65-	=65-	=65-	=65-	=65-	=65-	=65-
1GG	ho-	1D	et	1G	ho-	1B	-mo
1FF	-mo	1.F	ho-	1C	-mo	2.A/	fa-
!	!	!	!	!	!	!LO:TX:t=P:problem:kreska pseudotaktowa	!
.	.	.	.	.	.	4G/	.
=66-	=66-	=66-	=66-	=66-	=66-	=66-	=66-
1BB-y	fa-	.	.	1.D	fa-	4F/	.
.	.	.	.	.	.	4D/	.
.	.	2D/	-mo	.	.	1f	.
1BB-	-ctus	2.F/	fa-	.	.	.	.
.	.	.	.	1F/	.	4e\	.
!	!	!	!	!	!	!LO:TX:t=P:problem:kreska pseudotaktowa	!
.	.	4G/	-ctus	.	.	4d\	.
=67-	=67-	=67-	=67-	=67-	=67-	=67-	=67-
*lig	*	*	*	*	*	*	*
!	!	!	!	!	!	!LO:TX:a:t=P:problem:# above	!
0AA	eſt	[0Al;;	est	.	.	2c#y\	.
.	.	.	.	4E/	-ctus	1d	-ctus
.	.	.	.	4D/	.	.	.
.	.	.	.	1E	.	.	.
!	!	!	!	!	!	!LO:TX:a:t=P:problem:# above	!
.	.	.	.	.	.	2c#y\	.
=68-	=68-	=68-	=68-	=68-	=68-	=68-	=68-
0Dl;	.	0A]	.	0Dl;	eſt,	0dl;;	eſt,
*Xlig	*	*	*	*	*	*	*
!	!	!LO:LB:g=original	!	!	!	!LO:PB:g=original	!
=69||	=69||	=69||	=69||	=69||	=69||	=69||	=69||
*M2/1	*	*M2/1	*	*M2/1	*	*M2/1	*
*met(C|)	*	*met(C|)	*	*met(C|)	*	*met(C|)	*
!LO:TX:a:t=Tria	!	!	!	!LO:TX:a:t=Crucifixus Tacet	!	!LO:TX:b:t=Crucifixus	!
0D	Cru-	00r	.	0ryy	.	00r	.
=70-	=70-	=70-	=70-	=70-	=70-	=70-	=70-
1F	-ci-	.	.	0ryy	.	.	.
1E	-fi-	.	.	.	.	.	.
=71-	=71-	=71-	=71-	=71-	=71-	=71-	=71-
1D	-xus	0A	Cru-	0ryy	.	00r	.
2r	.	.	.	.	.	.	.
1D\	e-	.	.	.	.	.	.
=72-	=72-	=72-	=72-	=72-	=72-	=72-	=72-
.	.	1c	-ci-	0ryy	.	.	.
2C/	-ti-	.	.	.	.	.	.
2D/	-am	1B	-fi-	.	.	.	.
2E\	pro	.	.	.	.	.	.
=73-	=73-	=73-	=73-	=73-	=73-	=73-	=73-
2.F\	no-	1A	-xus	0ryy	.	0r	.
4E\	.	.	.	.	.	.	.
2D/	.	2r	.	.	.	.	.
*custos:C	*	*	*	*	*	*	*
!LO:LB:g=original	!	!	!	!	!	!	!
2C/	.	1A/	e-	.	.	.	.
=74-	=74-	=74-	=74-	=74-	=74-	=74-	=74-
1BB	-bis	.	.	0ryy	.	2r	.
.	.	2G#y/	-ti-	.	.	1d	E-
1AA	.	2.A/	-am	.	.	.	.
.	.	.	.	.	.	2c#y\	-ti-
.	.	4Gny/	pro	.	.	.	.
=75-	=75-	=75-	=75-	=75-	=75-	=75-	=75-
0r	.	2F/	no-	0ryy	.	2d\	-am
.	.	2E/	.	.	.	2e\	pro
.	.	4D/	.	.	.	2.f\	.
.	.	4C/	.	.	.	.	.
.	.	4D/	.	.	.	.	.
.	.	4E/	.	.	.	4e\	.
=76-	=76-	=76-	=76-	=76-	=76-	=76-	=76-
2r	.	4F/	.	0ryy	.	2d\	.
.	.	4G/	.	.	.	.	.
2AA/	ſub	1A	.	.	.	2cny\	.
2D/	Pon-	.	.	.	.	1B	no-
2E\	-ti-	2G#y/	-bis	.	.	.	.
=77-	=77-	=77-	=77-	=77-	=77-	=77-	=77-
1.F	-o	1A	.	0ryy	.	2A,</	-bis
.	.	.	.	.	.	2D/	ſub
.	.	1r	.	.	.	2A/	Pon-
4E/	.	.	.	.	.	2B\	-ti-
4D/	.	.	.	.	.	.	.
=78-	=78-	=78-	=78-	=78-	=78-	=78-	=78-
2C/	.	2r	.	0ryy	.	2c\	-o
1D	pi-	2D/	ſub	.	.	2A/	Pi-
.	.	2A/	Pon-	.	.	4A/	-la-
.	.	.	.	.	.	4F/	.
4C/	-la-	2B\	-ti-	.	.	2G/	.
4BB/	.	.	.	.	.	.	.
=79-	=79-	=79-	=79-	=79-	=79-	=79-	=79-
2AA/	.	2.c\	-o	0ryy	.	0A	-to
2C/	.	.	.	.	.	.	.
.	.	4B\	.	.	.	.	.
2D/	.	4A/	.	.	.	.	.
.	.	4Gny/	.	.	.	.	.
1F\	.	4F/	.	.	.	.	.
.	.	4E/	.	.	.	.	.
=80-	=80-	=80-	=80-	=80-	=80-	=80-	=80-
.	.	2D/	.	0ryy	.	2r	.
4E/	.	1d	Pi-	.	.	2A/	pa-
4D/	.	.	.	.	.	.	.
1E	.	.	.	.	.	2e\	-ſsus
.	.	2c#y\	-la-	.	.	2e\	et
=81-	=81-	=81-	=81-	=81-	=81-	=81-	=81-
1D	-to	2d\	-to	0ryy	.	2f\	ſe-
.	.	2B\	.	.	.	2d\	-pul-
2r	.	2A/	.	.	.	1f	-tus
2D/	pa-	1d\	Pi-	.	.	.	.
=82-	=82-	=82-	=82-	=82-	=82-	=82-	=82-
2A\	-ſsus	.	.	0ryy	.	1e	eſt,
*	*	*custos:c	*	*	*	*	*
!	!	!LO:LB:g=original	!	!	!	!	!
2A\	et	2c#y\	-la-	.	.	.	.
2B-y\	ſe-	1d	-to	.	.	2r	.
*	*	*	*	*	*	*	*ij
2G\	-pul-	.	.	.	.	2.d\	pa-
=83-	=83-	=83-	=83-	=83-	=83-	=83-	=83-
1B-y	-tus	00r	.	0ryy	.	.	.
.	.	.	.	.	.	4c\	.
*	*	*	*	*	*	*custos:d	*
!	!	!	!	!	!	!LO:LB:g=original	!
.	.	.	.	.	.	2d\	-ſsus
1A	.	.	.	.	.	2e\	et
.	.	.	.	.	.	2.f\	ſe-
=84-	=84-	=84-	=84-	=84-	=84-	=84-	=84-
2F\	.	.	.	0ryy	.	.	.
.	.	.	.	.	.	4e\	.
*col	*	*	*	*	*	*	*
2.G\	.	.	.	.	.	4d\	.
.	.	.	.	.	.	4c\	.
.	.	.	.	.	.	4B\	.
4F\	.	.	.	.	.	4A/	.
*Xcol	*	*	*	*	*	*	*
*custos:E	*	*	*	*	*	*	*
!LO:LB:g=original	!	!	!	!	!	!	!
4E/	.	.	.	.	.	1d\	-pul-
4D/	.	.	.	.	.	.	.
=85-	=85-	=85-	=85-	=85-	=85-	=85-	=85-
1E	.	1r	.	0ryy	.	.	.
.	.	.	.	.	.	2c#y\	-tus
*lig	*	*	*	*	*	*	*
1D	eſt	2r	.	.	.	2d,<\	eſt,
*	*	*	*	*	*	*	*Xij
.	.	2D/	pa-	.	.	2f\	pa-
=86-	=86-	=86-	=86-	=86-	=86-	=86-	=86-
1AA	.	2A/	-ſsus	0ryy	.	2e\	-ſsus
.	.	2A/	.	.	.	2cny\	et
*Xlig	*	*	*	*	*	*	*
2r	.	2B-y\	et	.	.	2d\	ſe-
2C/	et	2G/	Se-	.	.	1e\	-pul-
=87-	=87-	=87-	=87-	=87-	=87-	=87-	=87-
2BB-y/	ſe-	1B-y	-pul-	0ryy	.	.	.
2GG/	-pul-	.	.	.	.	2d\	-tus
1AA	-tus	1A	-tus	.	.	2c\	.
.	.	.	.	.	.	1e\	.
=88-	=88-	=88-	=88-	=88-	=88-	=88-	=88-
2BB-y/	.	2F,</	est	0ryy	.	.	.
2GG/	.	2G/	.	.	.	1d	.
1AA	eſt	1E	.	.	.	.	.
.	.	.	.	.	.	2c#y\	eſt
=89-	=89-	=89-	=89-	=89-	=89-	=89-	=89-
0D	.	1.F	.	0ryy	.	1d	.
.	.	.	.	.	.	2r	.
.	.	4E/	.	.	.	1A/	Et
.	.	4D/	.	.	.	.	.
=90-	=90-	=90-	=90-	=90-	=90-	=90-	=90-
0r	.	00D	.	0ryy	.	.	.
.	.	.	.	.	.	2A/	re-
.	.	.	.	.	.	2B-y/	-sur-
.	.	.	.	.	.	2A/	-re-
=91-	=91-	=91-	=91-	=91-	=91-	=91-	=91-
2r	.	.	.	0ryy	.	2D,</	-yit
1D	Et	.	.	.	.	1A	ter-
2D/	re-	.	.	.	.	2F/	-ti-
=92-	=92-	=92-	=92-	=92-	=92-	=92-	=92-
2E/	-sur-	00r	.	0ryy	.	2G/	-a
2D/	-re-	.	.	.	.	2A/	di-
2GG/	-xit	.	.	.	.	2B-y/	-e
1D\	ter-	.	.	.	.	2A/	ſe-
*	*	*	*	*	*	*custos:F	*
!	!	!	!	!	!	!LO:LB:g=original	!
=93-	=93-	=93-	=93-	=93-	=93-	=93-	=93-
.	.	.	.	0ryy	.	2F/	-cun-
2BBny/	-ti-	.	.	.	.	2G/	-dum
2C/	-a	.	.	.	.	2A/	.
2D/	di-	.	.	.	.	2Bny\	ſcri-
=94-	=94-	=94-	=94-	=94-	=94-	=94-	=94-
2E\	-e	00r	.	0ryy	.	2cny\	.
2D/	Se-	.	.	.	.	1d	.
1.F	-cun-	.	.	.	.	.	.
.	.	.	.	.	.	4c\	.
.	.	.	.	.	.	4B\	.
=95-	=95-	=95-	=95-	=95-	=95-	=95-	=95-
.	.	.	.	0ryy	.	2A/	.
2E\	-dum	.	.	.	.	2.c\	.
2C/	Scri-	.	.	.	.	.	.
.	.	.	.	.	.	4B\	-ptu-
2D/	-ptu-	.	.	.	.	1A/	-ras
=96-	=96-	=96-	=96-	=96-	=96-	=96-	=96-
1BB	-ras,	2r	.	0ryy	.	.	.
.	.	2D/	Et	.	.	2G#y/	.
*custos:AA	*	*	*	*	*	*	*
!LO:LB:g=original	!	!	!	!	!	!	!
1AA	.	2E/	as-	.	.	2A,</	.
.	.	2F/	-cen-	.	.	2A/	Et
=97-	=97-	=97-	=97-	=97-	=97-	=97-	=97-
00r	.	2G/	-dit	0ryy	.	2B\	as-
.	.	2A/	in	.	.	2c\	-cen-
.	.	2D/	.	.	.	2d\	-dit
.	.	2.A/	cae-	.	.	2e\	in
=98-	=98-	=98-	=98-	=98-	=98-	=98-	=98-
.	.	.	.	0ryy	.	2A/	cae-
.	.	4G/	.	.	.	.	.
.	.	4F/	.	.	.	1e	-lum
.	.	4E/	.	.	.	.	.
.	.	1F	-lum	.	.	.	.
.	.	.	.	.	.	2d\	.
=99-	=99-	=99-	=99-	=99-	=99-	=99-	=99-
2r	.	1E	.	0ryy	.	1e	.
2AA/	Se-	.	.	.	.	.	.
2BB/	-det	2r	.	.	.	0r	.
2C/	ad	2E/	ſe-	.	.	.	.
=100-	=100-	=100-	=100-	=100-	=100-	=100-	=100-
2D/	dex-	2F/	-det	0ryy	.	.	.
2E\	-te-	2G/	ad	.	.	.	.
2C/	-ra(m)	2A/	dex-	.	.	2r	.
*	*	*custos:F	*	*	*	*	*
!	!	!LO:LB:g=original	!	!	!	!	!
1D\	.	2.F/	-te-	.	.	2A/	ſe-
=101-	=101-	=101-	=101-	=101-	=101-	=101-	=101-
.	.	.	.	0ryy	.	2B\	-det
.	.	4E/	.	.	.	.	.
2C/	Pa-	1A	.	.	.	2c\	ad
1BB	-tris	.	.	.	.	1d	dex-
.	.	2G/	-ram.	.	.	.	.
=102-	=102-	=102-	=102-	=102-	=102-	=102-	=102-
1AA	.	2.cny\	Pa-	0ryy	.	1e	-te-
.	.	4Bny\	.	.	.	.	.
1r	.	4A/	.	.	.	2c\	-ra(m)
.	.	4G/	.	.	.	.	.
.	.	1B\	.	.	.	2.d\	Pa-
=103-	=103-	=103-	=103-	=103-	=103-	=103-	=103-
2r	.	.	.	0ryy	.	.	.
.	.	.	.	.	.	4c\	.
2D/	Et	1A	.	.	.	4B\	.
.	.	.	.	.	.	4A/	.
*	*	*	*	*	*	*custos:B	*
!	!	!	!	!	!	!LO:LB:g=original	!
2D/	i-	.	.	.	.	1B	-tris
2E\	-te-	2G#y/	-tris	.	.	.	.
=104-	=104-	=104-	=104-	=104-	=104-	=104-	=104-
2F\	-rum	1A	.	0ryy	.	0A	.
2D/	ven-	.	.	.	.	.	.
1.F	-tu-	2r	.	.	.	.	.
.	.	2A/	Et	.	.	.	.
=105-	=105-	=105-	=105-	=105-	=105-	=105-	=105-
.	.	2A/	i-	0ryy	.	00r	.
4E\	-rus	2B\	-te-	.	.	.	.
4D\	.	.	.	.	.	.	.
2C/	.	2c\	-ru(m)	.	.	.	.
2D/	eſt	2A/	ven-	.	.	.	.
=106-	=106-	=106-	=106-	=106-	=106-	=106-	=106-
2AA/	.	1.c	-tu-	0ryy	.	.	.
2AA/	cum	.	.	.	.	.	.
2.C/	glo-	.	.	.	.	.	.
.	.	4B/	.	.	.	.	.
4D/	-ri-	4A/	.	.	.	.	.
=107-	=107-	=107-	=107-	=107-	=107-	=107-	=107-
2E/	-a	2Gny/	-rus	0ryy	.	0r	.
2AA/	iu-	2A/	.	.	.	.	.
4AA/	-di-	2E/	est	.	.	.	.
4BB/	.	.	.	.	.	.	.
4C/	.	2E/	cu(m)	.	.	.	.
4D/	.	.	.	.	.	.	.
*custos:E	*	*	*	*	*	*	*
!LO:PB:g=original	!	!	!	!	!	!	!
=108-	=108-	=108-	=108-	=108-	=108-	=108-	=108-
4E\	.	2.G/	glo-	0ryy	.	1r	.
4F\	.	.	.	.	.	.	.
1G	.	.	.	.	.	.	.
.	.	4A/	-ri-	.	.	.	.
.	.	2B\	-a	.	.	2r	.
4F\	.	2c\	Iu-	.	.	2A/	Cum
4E\	.	.	.	.	.	.	.
=109-	=109-	=109-	=109-	=109-	=109-	=109-	=109-
1F	-ca-	2A/	-di-	0ryy	.	2.c\	glo-
.	.	1c	-ca	.	.	.	.
.	.	.	.	.	.	4d\	-ri-
2E\	-re	.	.	.	.	0e	-a
1A\	vi-	4B\	.	.	.	.	.
.	.	4A\	.	.	.	.	.
=110-	=110-	=110-	=110-	=110-	=110-	=110-	=110-
.	.	2c\	.	0ryy	.	.	.
*	*	*custos:B	*	*	*	*	*
!	!	!LO:LB:g=original	!	!	!	!	!
2G\	-vos	2B\	.	.	.	.	.
2E\	et	2G/	.	.	.	2r	.
*	*	*	*	*	*	*	*ij
1F\	mor-	1A/	.	.	.	2A/	Cum
=111-	=111-	=111-	=111-	=111-	=111-	=111-	=111-
.	.	.	.	0ryy	.	2.c\	glo-
4E/	.	4G/	.	.	.	.	.
4D/	.	4F/	.	.	.	4d\	-ri-
2C/	.	2E/	.	.	.	2e,<\	-a
*	*	*	*	*	*	*	*Xij
2D/	.	2D/	.	.	.	2f\	iu-
=112-	=112-	=112-	=112-	=112-	=112-	=112-	=112-
1BB	-tu-	2r	.	0ryy	.	2d\	-di-
.	.	1d	ui-	.	.	1f	-ca-
1AA	-os	.	.	.	.	.	.
.	.	2c\	-uos	.	.	4e\	.
.	.	.	.	.	.	4d\	.
=113-	=113-	=113-	=113-	=113-	=113-	=113-	=113-
0r	.	2A/	et	0ryy	.	2c\	-re
.	.	1B-y	mor-	.	.	1d	ui-
.	.	4A/	.	.	.	2c\	-uos
.	.	4G/	.	.	.	.	.
=114-	=114-	=114-	=114-	=114-	=114-	=114-	=114-
1D	vi-	2F/	.	0ryy	.	2A/	.
.	.	2F/	.	.	.	2A/	et
2C/	-uos	2G/	.	.	.	4c\	mor-
.	.	.	.	.	.	4B\	.
2AA/	et	2A/	.	.	.	4c\	.
.	.	.	.	.	.	4d\	.
=115-	=115-	=115-	=115-	=115-	=115-	=115-	=115-
2C/	mor-	4G/	.	0ryy	.	2e\	-tu-
.	.	4F/	.	.	.	.	.
2D/	-tu-	4E/	.	.	.	1d	.
.	.	4D/	.	.	.	.	.
*lig	*	*	*	*	*	*	*
1AA	-os	1E	-tu-	.	.	.	.
.	.	.	.	.	.	2c#y\	.
=116-	=116-	=116-	=116-	=116-	=116-	=116-	=116-
1D	.	0D	-os	0ryy	.	2d,<\	-os
.	.	.	.	.	.	1f	Cu-
*Xlig	*	*	*	*	*	*	*
2r	.	.	.	.	.	.	.
1D\	Cu-	.	.	.	.	2f\	-ius
=117-	=117-	=117-	=117-	=117-	=117-	=117-	=117-
.	.	2r	.	0ryy	.	0f	re-
2D/	-ius	1A	Cu-	.	.	.	.
1D	re-	.	.	.	.	.	.
.	.	2A/	-ius	.	.	.	.
=118-	=118-	=118-	=118-	=118-	=118-	=118-	=118-
0C	-gni	2A/	re-	0ryy	.	0e	-gni
.	.	2G/	-gni	.	.	.	.
.	.	1.c	.	.	.	.	.
*	*	*	*	*	*	*custos:d	*
!	!	!	!	!	!	!LO:LB:g=original	!
=119-	=119-	=119-	=119-	=119-	=119-	=119-	=119-
1.F	non	.	.	0ryy	.	1r	.
.	.	2Bny\	non	.	.	.	.
.	.	2A/	e-	.	.	1.d	cu-
2E\	e-	2G/	-rit	.	.	.	.
*custos:D	*	*	*	*	*	*	*
!LO:LB:g=original	!	!	!	!	!	!	!
=120-	=120-	=120-	=120-	=120-	=120-	=120-	=120-
2.D/	-rit	4F/	fi-	0ryy	.	.	.
.	.	4E/	.	.	.	.	.
.	.	1A	.	.	.	2d\	-ius
4C/	.	.	.	.	.	.	.
1BB	fi-	.	.	.	.	1d	re-
.	.	2G#y/	.	.	.	.	.
*	*	*custos:A	*	*	*	*	*
!	!	!LO:LB:g=original	!	!	!	!	!
=121-	=121-	=121-	=121-	=121-	=121-	=121-	=121-
1AA	-nis	0A	-nis	0ryy	.	1cny	-gni
*	*ij	*	*	*	*	*	*
1.D	non	.	.	.	.	1.f	non
=122-	=122-	=122-	=122-	=122-	=122-	=122-	=122-
.	.	1F	non	0ryy	.	.	.
2C/	.	.	.	.	.	2e\	.
2BB-y/	e-	1.B-y	e-	.	.	2d\	e-
2AA/	-rit	.	.	.	.	2c\	-rit
=123-	=123-	=123-	=123-	=123-	=123-	=123-	=123-
0GG	fi-	.	.	0ryy	.	0B-y	fi-
.	.	2A/	-rit	.	.	.	.
.	.	1Gny	fi-	.	.	.	.
=124-	=124-	=124-	=124-	=124-	=124-	=124-	=124-
0Dl;<	-nis	0F#yl;;	-nis	0ryy	.	0Al;;	-nis
*	*Xij	*	*	*	*	*	*
!	!	!	!	!LO:LB:g=original	!	!	!
=125||	=125||	=125||	=125||	=125||	=125||	=125||	=125||
*M2/1	*	*M2/1	*	*M2/1	*	*M2/1	*
*met(C|)	*	*met(C|)	*	*met(C|)	*	*met(C|)	*
1GG	Et	1B	Et	1D	Et	1d	Et
2GG/	in	2B\	in	2D/	in	2d\	in
1GG/	Spi-	1B\	Spi-	1D/	Spi-	1d\	Spi-
=126-	=126-	=126-	=126-	=126-	=126-	=126-	=126-
.	.	.	.	.	.	.	.
2GG/	-ri-	2B\	-ri-	2D/	-ri-	2d\	-ri-
2D/	-tum	2A/	-tu(m)	2F/	-tum	1d	-tum
1D\	ſan-	1A/	ſan-	1F/	ſan-	.	.
=127-	=127-	=127-	=127-	=127-	=127-	=127-	=127-
.	.	.	.	.	.	1.f	ſan-
2D/	-ctum	2A/	-ctu(m)	2D/	-ctum	.	.
1.D	Do-	0A	Do-	2.F/	Do-	.	.
.	.	.	.	.	.	2d\	-ctum
.	.	.	.	4E/	-mi-	.	.
=128-	=128-	=128-	=128-	=128-	=128-	=128-	=128-
.	.	.	.	4F/	-num	1f	.
.	.	.	.	4G/	.	.	.
2AA/	.	.	.	1A	.	.	.
1BB	-mi-	1D	-mi-	.	.	1d	Do-
.	.	.	.	2G#y/	.	.	.
=129-	=129-	=129-	=129-	=129-	=129-	=129-	=129-
0AA	-num	2E,</	-num	1A	.	2.c\	-mi-
.	.	2A/	et	.	.	.	.
.	.	.	.	.	.	4d\	.
.	.	2.c\	Vi-	2r	.	0e	-num
.	.	.	.	2A/	et	.	.
.	.	4B\	.	.	.	.	.
=130-	=130-	=130-	=130-	=130-	=130-	=130-	=130-
1r	.	4A/	.	1.c	ui-	.	.
.	.	4G/	.	.	.	.	.
.	.	1A	-vi-	.	.	.	.
1D	et	.	.	.	.	1r	.
.	.	1d\	-fi-	2B\	-ui-	.	.
=131-	=131-	=131-	=131-	=131-	=131-	=131-	=131-
1.F	ui-	.	.	2.A/	-fi-	2r	.
.	.	2c\	.	.	.	2A/	et
.	.	.	.	4Gny/	.	.	.
.	.	2A/	.	4F/	.	2.c\	vi-
.	.	.	.	4E/	.	.	.
2E\	-fi-	1c\	-can-	1G/	-can-	.	.
.	.	.	.	.	.	4d\	.
*custos:C	*	*	*	*	*	*custos:e	*
!LO:LB:g=original	!	!	!	!	!	!LO:PB:g=original	!
=132-	=132-	=132-	=132-	=132-	=132-	=132-	=132-
2C/	-can-	.	.	.	.	2e\	-ui-
2D/	.	2B-y\	-tem	2F/	-tem	2d\	-fi-
1AA	-tem	0A	.	1E	.	2d\	-can-
.	.	.	.	.	.	2c#y\	-tem
=133-	=133-	=133-	=133-	=133-	=133-	=133-	=133-
1D	.	.	.	1D	.	2d,<\	.
.	.	.	.	.	.	1f	Qui
2r	.	2r	.	2r	.	.	.
*	*	*custos:d	*	*	*	*	*
!	!	!LO:LB:g=original	!	!	!	!	!
1D	Qui	1d\	Qui	1A/	Qui	2f\	ex
=134-	=134-	=134-	=134-	=134-	=134-	=134-	=134-
.	.	.	.	.	.	0f	pa-
2D/	ex	2d\	ex	2A/	ex	.	.
1D	pa-	1d	pa-	1A	pa-	.	.
*	*	*	*	*custos:G	*	*	*
!	!	!	!	!LO:LB:g=original	!	!	!
=135-	=135-	=135-	=135-	=135-	=135-	=135-	=135-
1E	-tre	2Bny\	-tre	1G	-tre	2e\	-tre
.	.	1c	fi-	.	.	1e	fi-
2C/	fi-	.	.	1A	fi-	.	.
2D/	-li-	2A/	-li-	.	.	2d\	-li-
=136-	=136-	=136-	=136-	=136-	=136-	=136-	=136-
2D/	-o-	1B-y	-o-	2F/	-li-	1d	-o-
2BB/	-que	.	.	2G/	-o-	.	.
2C/	pro-	2G/	-que	2E/	-que	2cny\	-q(ue)
2AA/	.	1A/	pro-	2C/	pro-	1e\	pro-
=137-	=137-	=137-	=137-	=137-	=137-	=137-	=137-
*	*	*	*	*lig	*	*	*
1BB-y	-ce-	.	.	1D	-ce-	.	.
.	.	2G/	-ce-	.	.	1d	-ce-
1AA	-dit	1A	-dit	1E	.	.	.
.	.	.	.	.	.	2c#y\	-dit
*	*	*	*	*Xlig	*	*	*
=138-	=138-	=138-	=138-	=138-	=138-	=138-	=138-
*	*	*	*	*	*	*lig	*
1D	.	2r	.	2D/	-dit	1d	.
.	.	1d	Qui	2D/	Qui	.	.
1r	.	.	.	1F	cum	1A	.
.	.	2c\	cum	.	.	.	.
*	*	*	*	*	*	*Xlig	*
=139-	=139-	=139-	=139-	=139-	=139-	=139-	=139-
1r	.	1B-y	Pa-	1G	Pa-	1r	.
2r	.	1A	-tre	1D	-tre	2r	.
2D\	et	.	.	.	.	1d\	et
=140-	=140-	=140-	=140-	=140-	=140-	=140-	=140-
1F	fi-	2r	.	2r	.	.	.
.	.	1f	et	1A	et	2cny\	Fi-
1G	-li-	.	.	.	.	2B-y\	-li-
.	.	1e\	fi-	2G/	Fi-	2B-\	-o
=141-	=141-	=141-	=141-	=141-	=141-	=141-	=141-
1D	-o	.	.	2.F/	.	2A/	ſi-
.	.	1d	-li-	.	.	2A/	-mul
.	.	.	.	8E/	.	.	.
.	.	.	.	8D/	.	.	.
2r	.	.	.	2F/	.	2A/	a-
2AA/	ſi-	2c#y\	-o	2E/	-li-	2A/	-do-
=142-	=142-	=142-	=142-	=142-	=142-	=142-	=142-
2BB-y/	-mul	1d	.	1D	-o	2G/	.
2GG/	a-	.	.	.	.	2.B-y/	-ra-
2.D/	-do-	2r	.	1r	.	.	.
.	.	.	.	.	.	4A/	.
.	.	2d\	et	.	.	1A/	.
4C/	.	.	.	.	.	.	.
=143-	=143-	=143-	=143-	=143-	=143-	=143-	=143-
1BBny	-ra-	2d\	con-	2r	.	.	.
.	.	2d\	-glo-	2D/	et	2G#y/	-tur
1AA	-tur	2cny\	-ri-	2E/	con-	2A,</	.
*	*	*	*	*	*	*custos:c	*
!	!	!	!	!	!	!LO:LB:g=original	!
.	.	1e\	-fi-	2C/	-glo-	1c\	et
=144-	=144-	=144-	=144-	=144-	=144-	=144-	=144-
1r	.	.	.	2.G/	-ri-	.	.
.	.	1d	-ca-	.	.	2B-y\	con-
.	.	.	.	4F/	-fi-	.	.
1AA	Qui	.	.	1E	-ca-	2.A/	-glo-
.	.	2c#y\	-tur	.	.	.	.
.	.	.	.	.	.	4Gny/	.
*custos:D	*	*	*	*	*	*	*
!LO:LB:g=original	!	!	!	!	!	!	!
=145-	=145-	=145-	=145-	=145-	=145-	=145-	=145-
1D	lo-	2d,<\	.	1D	-tur	4F/	-ri-
.	.	.	.	.	.	4E/	.
.	.	2D/	Qui	.	.	2F/	-fi-
2C/	-cu-	1G	lo-	2r	.	4E/	-ca-
.	.	.	.	.	.	4D/	.
2BB-y/	-tus	.	.	2D/	Qui	1d\	.
*	*	*custos:F	*	*	*	*	*
!	!	!LO:PB:g=original	!	!	!	!	!
=146-	=146-	=146-	=146-	=146-	=146-	=146-	=146-
2AA/	eſt	2F/	-cu-	1A	lo-	.	.
2AA/	p(er)	2E/	-tus	.	.	2c#y\	.
*	*	*	*	*	*	*lig	*
2BB-y/	pro-	1D	est	2G/	-cu-	1d	.
1D\	-phe-	.	.	2F/	-tus	.	.
!	!	!	!	!LO:LB:g=original	!	!	!
=147-	=147-	=147-	=147-	=147-	=147-	=147-	=147-
.	.	2r	.	2E/	eſt	1e	.
2C#y/	.	2G/	Et	2E/	pro	.	.
*lig	*	*	*	*	*	*Xlig	*
1D	-tas	1d	u-	2F/	pro-	1A	-tur
.	.	.	.	1A/	.	.	.
=148-	=148-	=148-	=148-	=148-	=148-	=148-	=148-
1E	.	2cny\	-na(m)	.	.	1r	.
.	.	2B-y\	San-	2G/	.	.	.
*Xlig	*	*	*	*	*	*	*
1AA	.	2A/	-cta(m)	1c	.	2r	.
.	.	2A/	Ca-	.	.	2E/	Et
=149-	=149-	=149-	=149-	=149-	=149-	=149-	=149-
1r	.	2B-y\	-tho-	2d\	.	1G	V-
.	.	1d	-li-	2B-y\	-phe-	.	.
2r	.	.	.	1A	-tas	2F/	-nam
2AA/	et	2c#y\	-ca(m)	.	.	2E/	san-
=150-	=150-	=150-	=150-	=150-	=150-	=150-	=150-
2.D/	A-	1d	.	2r	.	2D/	-cta(m)
.	.	.	.	2D/	et	2A/	Ca-
4D/	-po-	.	.	.	.	.	.
2Cny/	-ſto-	2r	.	2.G/	A-	2cny\	-tho-
2BB-y/	-li-	2D/	et	.	.	1d\	-li-
.	.	.	.	4G/	-po-	.	.
=151-	=151-	=151-	=151-	=151-	=151-	=151-	=151-
2AA/	-cam	2.A/	A-	2F/	-ſto-	.	.
2AA/	ec-	.	.	2E/	-li-	2c#y\	.
.	.	4A/	-po-	.	.	.	.
2BB-y/	-cle-	2G/	-sto-	2D/	-cam	1d	-ca(m)
1D\	-ſi-	2F/	-li-	2A/	Ec-	.	.
=152-	=152-	=152-	=152-	=152-	=152-	=152-	=152-
.	.	2E/	-cam	2Bny\	-cle-	2r	.
2C/	-am	2E/	.	2c\	-ſi-	2G/	et
*lig	*	*	*	*	*	*	*
1D	.	2F/	Ec-	1A	-am	2.d\	a-
.	.	1A/	-cle-	.	.	.	.
.	.	.	.	.	.	4d\	-po-
=153-	=153-	=153-	=153-	=153-	=153-	=153-	=153-
1E	.	.	.	2r	.	2cny\	-sto-
.	.	2G#y/	-si-	1E	ec-	2Bny\	-li-
*Xlig	*	*	*	*	*	*	*
2C/	.	1A	-am	.	.	2A/	-cam
2D/	.	.	.	1A/	-cle-	2A/	Ec-
=154-	=154-	=154-	=154-	=154-	=154-	=154-	=154-
1BBny	.	2r	.	.	.	2B\	-cle-
*	*	*	*	*	*	*custos:d	*
!	!	!	!	!	!	!LO:LB:g=original	!
.	.	2D/	Con-	2G#y/	-si-	1d	-ſi-
2AA/	.	2E/	-fi-	0A	-am	.	.
2AA/	.	2E/	-te-	.	.	2c#y\	.
=155-	=155-	=155-	=155-	=155-	=155-	=155-	=155-
2.D/	.	2F/	-or	.	.	0d	-am
.	.	2F/	V-	.	.	.	.
4C/	.	.	.	.	.	.	.
1BB	.	1Gny	-num	2r	.	.	.
.	.	.	.	2D/	Con-	.	.
=156-	=156-	=156-	=156-	=156-	=156-	=156-	=156-
1AA	.	2r	.	2E/	-fi-	1cny	.
.	.	1A	Con-	2E/	-te-	.	.
2r	.	.	.	2F/	-or	0r	.
*custos:D	*	*custos:A	*	*	*	*	*
!LO:LB:g=original	!	!LO:LB:g=original	!	!	!	!	!
2D/	Con-	2A/	-fi-	2F/	V-	.	.
=157-	=157-	=157-	=157-	=157-	=157-	=157-	=157-
2E\	-fi-	2Bny\	-te-	1Gny	-num	.	.
2E\	-te-	2cny\	-or	.	.	.	.
2F\	-or	2c\	V-	1r	.	2r	.
2F\	V-	1d\	-num	.	.	2A/	Con-
=158-	=158-	=158-	=158-	=158-	=158-	=158-	=158-
4G\	-num	.	.	0r	.	2B\	-fi-
4F\	.	.	.	.	.	.	.
4E\	.	2.G/	Ba-	.	.	2B\	-te-
4D/	.	.	.	.	.	.	.
2C/	ba-	.	.	.	.	2c\	-or
.	.	4E/	.	.	.	.	.
4BB/	-pti-	1A/	-pti-	.	.	2c\	u-
4AA/	.	.	.	.	.	.	.
=159-	=159-	=159-	=159-	=159-	=159-	=159-	=159-
2BB/	.	.	.	2r	.	2d\	-num
2BB/	-ſma	2G#y/	.	2D/	Con-	2d\	ba-
*lig	*	*	*	*custos:E	*	*	*
!	!	!	!	!LO:LB:g=original	!	!	!
1AA	.	0A	-sma	2E/	-fi-	4c\	-pti-
.	.	.	.	.	.	4d\	.
.	.	.	.	2E/	-te-	4e\	.
.	.	.	.	.	.	4c\	.
=160-	=160-	=160-	=160-	=160-	=160-	=160-	=160-
1D	.	.	.	2F/	-or	4d\	.
.	.	.	.	.	.	4e\	.
.	.	.	.	2F/	u-	4f\	.
.	.	.	.	.	.	4e\	.
*Xlig	*	*	*	*	*	*	*
0r	.	1r	.	2G/	-num	4d\	.
.	.	.	.	.	.	4c\	.
.	.	.	.	1A/	ba-	4B\	.
.	.	.	.	.	.	4A/	.
=161-	=161-	=161-	=161-	=161-	=161-	=161-	=161-
.	.	2D/	in	.	.	1B	-ſma
.	.	2E/	re-	2G#y/	-pti-	.	.
1AA	in	2E/	-miſ-	1A	-ſma	1A	.
.	.	2F/	.	.	.	.	.
=162-	=162-	=162-	=162-	=162-	=162-	=162-	=162-
2BB-y/	re-	2F/	-si-	2r	.	0r	.
2BB-/	-miſ-	2Gny/	-o-	2D/	in	.	.
2C/	-si-	2G/	-nem	2E/	re-	.	.
2C/	-o-	2.A/	pec-	2E/	-miſ-	.	.
=163-	=163-	=163-	=163-	=163-	=163-	=163-	=163-
2D/	-nem	.	.	2F/	-si-	2r	.
.	.	4G/	.	.	.	.	.
2D/	pec-	2F/	-ca-	2F/	-o-	2A/	in
2GG/	-ca-	2E/	-to-	2Gny/	-nem	2B-y\	re-
2BB-y/	-to-	2D/	.	2G/	pec-	2B-\	-miſ-
=164-	=164-	=164-	=164-	=164-	=164-	=164-	=164-
*lig	*	*	*	*	*	*	*
1AA	-rum	1E	-ru(m)	1.A	-ca-	2c\	-si-
.	.	.	.	.	.	2c\	-o-
1D	.	2D,</	.	.	.	2d\	-nem
.	.	2F/	Et	1d\	-to-	2d\	pec-
*Xlig	*	*	*	*	*	*	*
=165-	=165-	=165-	=165-	=165-	=165-	=165-	=165-
1r	.	2G/	ex-	.	.	1e	-ca-
.	.	2A/	-pe-	2c#y\	.	.	.
2r	.	2D/	-cto	1d	-ru(m)	1f	-to-
2F\	Et	1d\	re-	.	.	.	.
=166-	=166-	=166-	=166-	=166-	=166-	=166-	=166-
2G\	ex-	.	.	1r	.	1e	-ru(m)
2A\	-pe-	2c\	-ſur-	.	.	.	.
*	*	*	*	*	*	*custos:d	*
!	!	!	!	!	!	!LO:LB:g=original	!
1D	-cto	1f	-re-	2r	.	2r	.
.	.	.	.	2F/	Et	1d\	Et
*	*	*custos:e	*	*	*	*	*
!	!	!LO:LB:g=original	!	!	!	!	!
=167-	=167-	=167-	=167-	=167-	=167-	=167-	=167-
1r	.	2e\	-cti-	2G/	ex-	.	.
.	.	1f	-o-	2A/	-pe-	2c\	ex-
2r	.	.	.	2D/	-cto	4d\	-pe-
.	.	.	.	.	.	4c\	.
2C/	Et	2e\	-nem	1A/	re-	4Bny\	.
.	.	.	.	.	.	4A/	.
*custos:D	*	*	*	*	*	*	*
!LO:PB:g=original	!	!	!	!	!	!	!
=168-	=168-	=168-	=168-	=168-	=168-	=168-	=168-
2D/	ex-	2d\	mor-	.	.	1B	.
2E/	-pe-	4c\	.	2G#y/	-ſur-	.	.
.	.	4B\	.	.	.	.	.
2AA/	-cto	2c\	.	2.A/	-re-	2A,</	-cto
*	*	*	*	*	*	*	*ij
2AA/	re-	2.A/	-tu-	.	.	2c\	Et
.	.	.	.	4Gny/	-cti-	.	.
=169-	=169-	=169-	=169-	=169-	=169-	=169-	=169-
2D/	-ſur-	.	.	2F/	-o-	2d\	ex-
.	.	4B\	.	.	.	.	.
2C/	-re-	2c\	.	2E/	-nem	2e\	-pe-
2.D/	-cti-	2F/	-o-	2r	.	1A	-cto
*	*	*	*	*	*	*	*Xij
!	!	!	!	!LO:PB:g=original	!	!	!
.	.	1A/	.	1F/	mor-	.	.
4C/	.	.	.	.	.	.	.
=170-	=170-	=170-	=170-	=170-	=170-	=170-	=170-
1BBny	-o-	.	.	.	.	2r	.
.	.	2G#y/	-rum	4E/	-tu-	1d	re-
.	.	.	.	4D/	.	.	.
*lig	*	*	*	*	*	*	*
1AA	-nem	0A	.	2E/	-o-	.	.
.	.	.	.	2E/	-rum	2c\	-ſur-
=171-	=171-	=171-	=171-	=171-	=171-	=171-	=171-
1D	.	.	.	2D/	.	2.f\	-re-
.	.	.	.	2F/	re-	.	.
.	.	.	.	.	.	4e\	-cti-
*Xlig	*	*	*	*	*	*	*
1r	.	1r	.	2G/	-ſur-	2d\	-o-
.	.	.	.	2.A/	-re-	2c#y\	-nem
=172-	=172-	=172-	=172-	=172-	=172-	=172-	=172-
2r	.	1F	re-	.	.	2d\	.
.	.	.	.	4G/	.	.	.
1D	re-	.	.	2A/	.	2d\	.
.	.	2Gny/	-ſur-	2B\	-cti-	1e	.
2C/	-ſur-	2.A/	-re-	2.cny\	-o-	.	.
=173-	=173-	=173-	=173-	=173-	=173-	=173-	=173-
2.F\	-re-	.	.	.	.	2A,</	.
.	.	4G/	-cti-	4B\	.	.	.
.	.	2A/	-o-	4A/	.	2cny\	mor-
4E\	-cti-	.	.	4G/	.	.	.
2D/	-o-	2B\	-ne(m)	2F/	.	2d\	-tu-
2C/	-nem	2c\	.	2E/	-nem	2e\	-o-
=174-	=174-	=174-	=174-	=174-	=174-	=174-	=174-
2D/	mor-	2A/	mor-	2r	.	1f	-rum,
2D/	-tu-	2d\	-tu-	2A/	mor-	.	.
1E	-o-	2B\	-o-	2A/	-tu-	0e	.
.	.	2B\	-rum	2G#y/	-o-	.	.
=175-	=175-	=175-	=175-	=175-	=175-	=175-	=175-
1AA	-rum	1c	.	0A	-rum	.	.
2r	.	2r	.	.	.	2r	.
2AA/	Et	2c\	Et	.	.	2E/	Et
=176-	=176-	=176-	=176-	=176-	=176-	=176-	=176-
2AA/	ui-	2c\	Vi-	2r	.	2E/	vi-
2AA/	-tam	2c\	-ta(m)	2A/	Et	2E/	-tam
*	*	*	*	*	*	*custos:F	*
!	!	!	!	!	!	!LO:LB:g=original	!
1D	ven-	2d\	Ven-	2A/	ui-	2F/	ven-
.	.	2d\	-tu-	2A/	-tam	2F/	-tu-
*	*	*custos:e	*	*	*	*	*
!	!	!LO:LB:g=original	!	!	!	!	!
=177-	=177-	=177-	=177-	=177-	=177-	=177-	=177-
2C/	-tu-	00e	-ri	1c	ven-	2G/	-ri
2AA/	-ri	.	.	.	.	1A	ſae-
1E	ſae-	.	.	1B	-tu-	.	.
.	.	.	.	.	.	2G#y/	-cu-
=178-	=178-	=178-	=178-	=178-	=178-	=178-	=178-
0.AA	-cu-	.	.	1A	-ri	2A,</	-li
.	.	.	.	.	.	2A/	.
*	*	*	*	*lig	*	*	*
.	.	.	.	1A	ſe-	2.c\	ſae-
.	.	.	.	.	.	4B\	-cu-
=179-	=179-	=179-	=179-	=179-	=179-	=179-	=179-
.	.	1e	.	1.c	-cu-	4A/	.
.	.	.	.	.	.	4Gny/	.
*lig	*	*	*	*	*	*lig	*
.	.	.	.	.	.	1A	.
1D	-li	1r	.	.	.	.	.
*	*	*	*	*Xlig	*	*	*
*	*	*	*	*custos:B	*	*	*
!	!	!	!	!LO:LB:g=original	!	!	!
.	.	.	.	2B\	-li	1d\	.
*	*	*	*	*	*	*Xlig	*
=180-	=180-	=180-	=180-	=180-	=180-	=180-	=180-
1.F	.	2r	.	2.A/	A-	.	.
*	*	*lig	*	*	*	*	*
.	.	1A	ſae-	.	.	2c\	-li
.	.	.	.	4Gny/	-men	.	.
.	.	.	.	4F/	.	2d\	.
.	.	.	.	4E/	.	.	.
*Xlig	*	*	*	*	*	*	*
*custos:E	*	*	*	*	*	*	*
!LO:LB:g=original	!	!	!	!	!	!	!
2E\	A-	1c\	.	1G/	.	1e\	.
*	*	*Xlig	*	*	*	*	*
=181-	=181-	=181-	=181-	=181-	=181-	=181-	=181-
2C/	.	.	.	.	.	.	.
2D/	.	2B-y\	-cu-	2F/	.	1d	A-
1AA	.	2A/	-li	1E	.	.	.
.	.	2A/	A-	.	.	2c#y\	-men.
=182-	=182-	=182-	=182-	=182-	=182-	=182-	=182-
1D	-men	1F	-men	1D	.	1d	.
2r	.	2r	.	1r	.	2r	.
2AA/	Et	2c\	Et	.	.	2E/	Et
=183-	=183-	=183-	=183-	=183-	=183-	=183-	=183-
2AA/	ui-	2c\	Vi-	2r	.	2E/	vi-
2AA/	-tam	2c\	-ta(m)	2A/	Et	2E/	-tam
*	*	*	*	*	*	*custos:F	*
!	!	!	!	!	!	!LO:LB:g=original	!
1D	ven-	2d\	Ven-	2A/	vi-	2F/	ven-
.	.	2d\	-tu-	2A/	-tam	2F/	-tu-
*	*	*custos:e	*	*	*	*	*
!	!	!LO:LB:g=original	!	!	!	!	!
=184-	=184-	=184-	=184-	=184-	=184-	=184-	=184-
2C/	-tu-	00e	-ri	1c	ven-	2G/	-ri
2AA/	-ri	.	.	.	.	1A	ſae-
1E	ſae-	.	.	1B	-tu-	.	.
.	.	.	.	.	.	2G#y/	-cu-
=185-	=185-	=185-	=185-	=185-	=185-	=185-	=185-
0.AA	-cu-	.	.	1A	-ri	2A,</	-li
.	.	.	.	.	.	2A/	.
*	*	*	*	*lig	*	*	*
.	.	.	.	1A	ſe-	2.cny\	ſae-
.	.	.	.	.	.	4B\	-cu-
=186-	=186-	=186-	=186-	=186-	=186-	=186-	=186-
.	.	1e	.	1.c	-cu-	4A/	.
.	.	.	.	.	.	4Gny/	.
*lig	*	*	*	*	*	*lig	*
.	.	.	.	.	.	1A	.
1D	.	1r	.	.	.	.	.
*	*	*	*	*Xlig	*	*	*
*	*	*	*	*custos:B	*	*	*
!	!	!	!	!LO:LB:g=original	!	!	!
.	.	.	.	2B\	-li	1d\	.
*	*	*	*	*	*	*Xlig	*
=187-	=187-	=187-	=187-	=187-	=187-	=187-	=187-
1.F	-li	2r	.	2.A/	A-	.	.
*	*	*lig	*	*	*	*	*
.	.	1A	ſae-	.	.	2c\	-li
.	.	.	.	4G/	.	.	.
.	.	.	.	4F/	.	2d\	.
.	.	.	.	4E/	.	.	.
*Xlig	*	*	*	*	*	*	*
*custos:E	*	*	*	*	*	*	*
!LO:LB:g=original	!	!	!	!	!	!	!
2E\	A-	1c\	-cu-	1G/	.	1e\	.
*	*	*Xlig	*	*	*	*	*
=188-	=188-	=188-	=188-	=188-	=188-	=188-	=188-
2C/	.	.	.	.	.	.	.
2D/	.	2B-y\	-li	2F/	.	1d	A-
1AA	.	2A/	.	1E	.	.	.
.	.	2A/	A-	.	.	2c#y\	-men.
=189-	=189-	=189-	=189-	=189-	=189-	=189-	=189-
0Dl	-men	0Fl;\	-men,	0Dl;	-men	0dl	.
==	==	==	==	==	==	==	==
*-	*-	*-	*-	*-	*-	*-	*-
!!!system-decoration: [(*)]
!!!RDF**kern: < = below
!!!RDF**kern: l = terminal long
!!!AIN: 1 alto 1 bass 1 soprn 1 tenor
!!!ENC: Arek Malec
!!!END: 2022-01-18
!!!ENC: Andrzej Kubiczek
!!!END: 2022-01-25
